X: 14243
T: Further Along The Line
R: reel
M: 4/4
K: Gmajor
G,B,DE GABd|eg (3ggg ge d z|edBc dBGB|ABAG EGDB,|
G,B,DE GABd|egfa gedg|edBc dBGB|1 AGED G4:|2 AGED G3 F|
|:E3 F G3 A|B3 d effe|fgfe d^cdB|ABAF DFAF|
E3 F GFGA|B3 d effe|fgfe d^cdA|1 Beed e2 e2:|2 Beed e2 fg|
|:agfa gfeg|fe^ce dBAF|GFGA BAB^c|d^cdf [eA]2 a2-|
-agfa gfeg|fe^ce dBAF|GFGA B^cdB|1 AFEF D2 fg:|2 AFEF D4||

